public/themes/EC/images/security.svg

<?xml version="1.0" encoding="UTF-8"?>
<svg width="29px" height="34px" viewBox="0 0 29 34" version="1.1" xmlns="http://www.w3.org/2000/svg" xmlns:xlink="http://www.w3.org/1999/xlink">
    <!-- Generator: Sketch 61 (89581) - https://sketch.com -->
    <title>security</title>
    <desc>Created with Sketch.</desc>
    <g id="Page-1" stroke="none" stroke-width="1" fill="none" fill-rule="evenodd">
        <g id="security" fill="#383838" fill-rule="nonzero">
            <path d="M26.5833333,12.3362832 L22.9583333,12.3362832 L22.9583333,8.42477876 C22.9583333,3.77190193 19.1714085,0 14.5,0 C9.82859149,0 6.04166667,3.77190193 6.04166667,8.42477876 L6.04166667,12.3362832 L2.41666667,12.3362832 C1.08197852,12.3362832 0,13.4139695 0,14.7433628 L0,31.5929204 C0,32.9223137 1.08197852,34 2.41666667,34 L26.5833333,34 C27.9180215,34 29,32.9223137 29,31.5929204 L29,14.7433628 C29,13.4139695 27.9180215,12.3362832 26.5833333,12.3362832 Z M14.5,26.7787611 C12.4979678,26.7787611 10.875,25.1622317 10.875,23.1681416 C10.875,21.1740515 12.4979678,19.5575221 14.5,19.5575221 C16.5020322,19.5575221 18.125,21.1740515 18.125,23.1681416 C18.125,25.1622317 16.5020322,26.7787611 14.5,26.7787611 Z M8.45833333,12.3362832 L8.45833333,8.42477876 C8.45833333,5.10129531 11.1632796,2.40707965 14.5,2.40707965 C17.8367204,2.40707965 20.5416667,5.10129531 20.5416667,8.42477876 L20.5416667,12.3362832 L8.45833333,12.3362832 Z" id="Shape"></path>
        </g>
    </g>
</svg>

<svg width="29" height="34" viewBox="0 0 29 34" xmlns="http://www.w3.org/2000/svg"><title>security</title><path d="M26.583 12.336h-3.625V8.425C22.958 3.772 19.171 0 14.5 0S6.042 3.772 6.042 8.425v3.911H2.417A2.412 2.412 0 0 0 0 14.743v16.85A2.412 2.412 0 0 0 2.417 34h24.166A2.412 2.412 0 0 0 29 31.593v-16.85a2.412 2.412 0 0 0-2.417-2.407zM14.5 26.78a3.618 3.618 0 0 1-3.625-3.61 3.618 3.618 0 0 1 3.625-3.611 3.618 3.618 0 0 1 3.625 3.61 3.618 3.618 0 0 1-3.625 3.61zM8.458 12.336V8.425c0-3.324 2.705-6.018 6.042-6.018 3.337 0 6.042 2.694 6.042 6.018v3.911H8.458z" fill="#383838"/></svg>
